X:46
T:The Wedding
R:Air
C:Phil Cunningham
M:C
L:1/4
K:D
A2 d3/2 e/2 |: g2 f/2 a3/2 | e2 d3/2 f/2 | (B2 B) e | d3/2 B/2 A/2 G3/2|
(A2 A) d/2e/2 | d3/2 B/2 A/2 F3/2|1 E2 D3/2 B,/2| A,2 d3/2 e/2 :|2 E3 D||3"Fine" E4||
|: E2 F3/2 A/2 | (B2 B) e | d3/2 B/2 d b | a3 f/2e/2 |
f3/2 e/2 f/4(a3/4 a) |A2 f e | e3/2 f/2 d/2 A3/2 |"D.C. al Fine" B/2 f3/2 e2 :||
